X:1
T:Gigouillette (la)
C:Trad.
O:France
A:Vende
Z:Bart Vanhaverbeke 
L:1/8
M:2/4
K:G
DG | B>A Bc | BA DF | A>G AB | G2 DG | BA Bc | BA DF | A>G AB | G2 ||
M:2/8
L:1/8
D G/B/ | D G/B/ | D G/B/ | B A | D F/A/ | D F/A/ | D F/A/ | G2 :||
